!!!!SEGMENT: pl-gd--ee-1638--003-028_marenzio-luca--madrigali-a-quatro-voci-corbo-maluaggio.krn
!!!cenid: 15xx:1002
!!!COM: Marenzio, Luca
!!!COM-rismID: pe30003955
!!!CDT: ~1553-1599/08/22
!!!CNT: Italian
!!!GTL: Madrigali a quatro voci
!!!OTL: Corbo maluaggio
!!!OMV: 028
!!!PDT: 1587
!!!AGN:
!!!SMS-siglum: PL-GD
!!!SMS-shelfmark: Ee 1638
!!!SMS-shelfwork: 003-028 G
!!!SMS-variant:
!!!SMS-altvar:
!!!NIFC-rismSourceID: 1001202747
!!!NIFC-rismChildID: 990039322
!!!NIFC-islandoraID: pl-gd:57883
!!!URL-pdf-islandora: https://repozytorium.nifc.pl/islandora/object/pl-gd%3A57883/datastream/PDF/view
!!!URL-scan: https://polish.musicsources.pl/pl/lokalizacje/galeria/klocki-introligatorskie/655 @EN{Scan on Polish Music Sources Website} @PL{Skany w portalu Dziedzictwo Muzyki Polskiej w otwartym dostępie}
!!!ONB-nifc: UWAGA: zbiór na stronach: Canto: s. 637-653, Alto: s. do 486-501, Tenore: s. do 334-349, Bassus: s. do 182-197. Uwaga: utwory podzielone wg tytułów w spisach treści dostępnych na końcu każdej księgi głosowej.
!!!AIN: 1 alto 1 bass 1 soprn 1 tenor
!!!key: F
!!!filter-modern: sic -sq | shed -e "s/TX(.*):t=P:/tx$1:t=P:/LG" | shed -k -e "s/LO:N:vis/LO:n:vis:/L" | shed -e "s/^(\d+[\/\\]right)/$1yy/I;s/^(\d+[\/\\]left)/$1yy/I" | shed -e "s/-//B" | shed -e "s/^custos:/Xcustos:/I" | shed -k -e "s/LO:N:acc/LO:n:acc:/L" | autostem -r | tie -s  | humtr -p | modori -m
**kern	**text	**kern	**text	**kern	**text	**kern	**text
*part4	*part4	*part3	*part3	*part2	*part2	*part1	*part1
*staff4	*staff4	*staff3	*staff3	*staff2	*staff2	*staff1	*staff1
*I"BASSO	*	*I"TENORE	*	*I"ALTO	*	*I"CANTO	*
*I'B	*	*I'T	*	*I'A	*	*I'S	*
*mI"Basso	*	*mI"Tenore	*	*mI"Alto	*	*mI"Soprano	*
*ICvox	*	*ICvox	*	*ICvox	*	*ICvox	*
*Ibass	*	*Itenor	*	*Ialto	*	*Isoprn	*
*clefF4	*	*clefC4	*	*clefC3	*	*clefC1	*
*mclefF4	*	*mclefGv2	*	*mclefG2	*	*mclefG2	*
*k[b-]	*	*k[b-]	*	*k[b-]	*	*k[b-]	*
*F:	*	*F:	*	*F:	*	*F:	*
*M2/1	*	*M2/1	*	*M2/1	*	*M2/1	*
*met(C)	*	*met(C)	*	*met(C)	*	*met(C)	*
*mmet(c)	*	*mmet(c)	*	*mmet(c)	*	*mmet(c)	*
=1-	=1-	=1-	=1-	=1-	=1-	=1-	=1-
*xywh-#196:1082,563,3417,836	*	*xywh-#348:1279,536,3348,927	*	*xywh-#500:1080,501,3444,960	*	*xywh-#652:1094,546,3506,847	*
!	!	!LO:TX:a:t=Seconda parte.:mod=	!LO:MO:mod=Cor-	!LO:TX:a:t=Seconda parte.:mod=	!LO:TX:a:t=Seconda parte.:mod=	!	!
1r	.	2c\	COr-	1r	.	1r	.
.	.	4c\	-bo	.	.	.	.
!	!	!	!LO:MO:mod=mal-	!	!	!	!
.	.	4c\	ma-	.	.	.	.
!	!LO:MO:mod=Cor-	!	!LO:MO:mod=-vag-	!	!	!	!
2F\	COr-	2d\	-luag-	2f\	Cor-	2a\	Cor-
4F\	-bo	2c\	-gio	4f\	-bo	4a\	-bo
!	!LO:MO:mod=mal-	!	!	!	!LO:MO:mod=mal-	!	!LO:MO:mod=mal-
4F\	ma-	.	.	4f\	ma-	4a\	ma-
=2-	=2-	=2-	=2-	=2-	=2-	=2-	=2-
!	!LO:MO:mod=-vag-	!	!	!	!LO:MO:mod=-vag-	!	!LO:MO:mod=-vag-
2G\	-luag-	4r	.	2d\	-luag-	2b-\	-luag-
!	!	!	!LO:MO:mod=ur-	!	!	!	!
.	.	4B-\	vrſa-	.	.	.	.
!	!	!	!LO:MO:mod=-sa-	!	!	!	!
2F\	-gio	4c\	-chio	2f\	-gio	2a\	-gio
!	!	!	!LO:MO:mod=-chio as-	!	!	!	!
.	.	2d\	aſ-	.	.	.	.
!	!LO:MO:mod=ur-	!	!	!	!LO:MO:mod=ur-	!	!
2E-X\	vrſa-	.	.	2g\	vrſa-	2r	.
.	.	2c\	-pro e	.	.	.	.
!	!LO:MO:mod=-sa-	!	!	!	!LO:MO:mod=-sa-	!	!
2D/	-chio	.	.	2f\	-chio	4r	.
!	!	!	!LO:MO:mod=sal-	!	!	!	!LO:MO:mod=ur-
.	.	2B-\	ſa-	.	.	4f/	vrſa-
=3-	=3-	=3-	=3-	=3-	=3-	=3-	=3-
!	!LO:MO:mod=-chio as-	!	!	!	!LO:MO:mod=chio as-	!	!LO:MO:mod=-sa-
2C/	aſ-	.	.	2e-X\	aſ-	4g/	-chio
!	!	!	!LO:MO:mod=-va-	!	!	!	!LO:MO:mod=-chio as-
.	.	4.A/	-lua	.	.	4a\	aſ-
!	!	!	!	!	!LO:MO:mod=-pro e	!	!LO:MO:mod=-pro e
2BB-/	-pro e	.	.	2d\	-pro	4b-\	-pro
.	.	8G/	.	.	.	.	.
!	!	!	!	!	!	!	!LO:MO:mod=sal-
.	.	4.G/	.	.	.	4g/	e fa-
!	!LO:MO:mod=sal-	!	!	!	!LO:MO:mod=sal-	!	!LO:MO:mod=-va-
4.AA/	ſa-	.	.	4.c/	e ſa-	4.cc\	-lu-
.	.	8F/	.	.	.	.	.
.	.	2F/	.	.	.	.	.
!	!LO:MO:null:mod=.	!	!	!	!LO:MO:null:mod=.	!	!LO:MO:null:mod=.
8BB-/	-lua	.	.	8d\	-lu-	8f/	-a
!	!LO:MO:null:mod=-va-	!	!	!	!LO:MO:mod=-va-	!	!
4.GG/	.	.	.	4.B-/	-a	4.g/	.
!	!	!LO:SIC:v:t=custos F	!	!	!	!	!
.	.	4E/	ti-	.	.	.	.
8GG/	ti-	.	.	8A/	ti-	8g/	ti-
!	!	!LO:LB:g=original	!	!	!	!	!
=4-	=4-	=4-	=4-	=4-	=4-	=4-	=4-
*	*	*xywh-#348:1351,1185,3338,793	*	*	*	*	*
!LO:SIC:v:t=custos F	!	!	!	!	!	!	!
1FF	-co	1F	-co	1A	-co	1c	-co
!LO:LB:g=original	!	!	!	!LO:SIC:v:t=custos f	!	!LO:SIC:v:t=custos cc	!
*xywh-#196:1134,1265,3355,650	*	*	*	*	*	*	*
2F\	Co-	4r	.	1r	.	1r	.
.	.	4c\	Co-	.	.	.	.
4F\	-teſ-	4A/	-teſ-	.	.	.	.
4G\	-ta	4B-\	-ta	.	.	.	.
!	!	!	!	!LO:LB:g=original	!	!LO:LB:g=original	!
=5-	=5-	=5-	=5-	=5-	=5-	=5-	=5-
*	*	*	*	*xywh-#500:1152,1165,3321,797	*	*xywh-#652:1106,1193,3471,729	*
2A\	lin-	2c\	lin-	2r	.	2r	.
2F\	-gua	2A/	-gua	2f\	Co-	4r	.
.	.	.	.	.	.	4cc\	Co-
1r	.	1r	.	4f\	-teſ-	4a\	-teſ-
.	.	.	.	4g\	-ta	4b-\	-ta
.	.	.	.	2a\	lin-	2cc\	lin-
=6-	=6-	=6-	=6-	=6-	=6-	=6-	=6-
2F\	Co-	4r	.	1f	-gua	1a	-gua
.	.	4c\	Co-	.	.	.	.
4F\	-teſ-	4A/	-teſ-	.	.	.	.
4G\	-ta	4B-\	-ta	.	.	.	.
2A\	lin-	2c\	lin-	4r	.	4r	.
.	.	.	.	4c/	Co-	4a\	Co-
2F\	-gua	2A/	-gua	4c/	-teſ-	4a\	-teſ-
.	.	.	.	4d\	-ta	4b-\	-ta
=7-	=7-	=7-	=7-	=7-	=7-	=7-	=7-
4.Eny\	ve-	4.G/	ve-	2eny\	lin-	2cc\	lin-
8E\	-le-	8G/	-le-	.	.	.	.
4F\	-no-	4A/	-no-	2c/	-gua	2a\	-gua
4F\	-ſa	4A/	-ſa	.	.	.	.
!	!	!	!	!LO:N:acc=#	!	!	!
4.G\	mor-	4.d\	mor-	4.Bn/	ve-	4.g/	ve-
8G\	-di-	8d\	-di-	8B/	-le-	8g/	-le-
2F\	-la	2f\	-la	4c/	-no-	4a\	-no-
.	.	.	.	4c/	-ſa	4a\	-ſa
=8-	=8-	=8-	=8-	=8-	=8-	=8-	=8-
4.BB-/	mor-	1r	.	4.d\	mor-	4.b-\	mor-
8BB-/	-di-	.	.	8d\	-di-	8b-\	-di-
2F\	-la	.	.	2c/	-la	2a\	-la
2r	.	2r	.	2r	.	2r	.
!LO:SIC:v:t=custos G	!	!	!	!	!	!	!
2C/	Che	1c\	Che	2e\	Che	2g/	Che
!LO:LB:g=original	!	!	!	!	!	!	!
=9-	=9-	=9-	=9-	=9-	=9-	=9-	=9-
*xywh-#196:1062,1833,3417,619	*	*	*	*	*	*	*
2.G\	traſ-	.	.	2.d\	traſ-	2.g/	traſ-
!	!	!LO:N:acc=#	!	!	!	!	!
.	.	2.Bn\	traſ-	.	.	.	.
!	!	!	!	!LO:SIC:v:t=custos f	!	!	!
4G\	-por-	.	.	4d\	-por-	4g/	-por-
!	!	!	!	!LO:LB:g=original	!	!	!
*	*	*	*	*xywh-#500:1029,1768,3505,654	*	*	*
2F\	-tar	.	.	2.f\	-tar	2a\	-tar
!	!	!LO:SIC:v:t=custos c	!	!	!	!	!
.	.	4B\	-por-	.	.	.	.
!	!	!LO:LB:g=original	!	!	!	!LO:SIC:v:t=custos dd	!
*	*	*xywh-#348:1279,1803,3359,690	*	*	*	*	*
2D/	ſi	4c\	-tar	.	.	2a\	ſi
.	.	4A/	ſi	4d\	ſi	.	.
!	!	!	!	!	!	!LO:LB:g=original	!
=10-	=10-	=10-	=10-	=10-	=10-	=10-	=10-
*	*	*	*	*	*	*xywh-#652:1047,1676,3530,729	*
2.B-\	fa	2.f\	fa	2.d\	fa	2.dd\	fa
4G\	dal	4f\	dal	4g\	dal	4b-\	dal
2.A\	cor	2.d\	cor	2.e\	cor	2.a\	cor
4F\	fa-	4c\	fa-	4f\	fa-	4a\	fa-
=11-	=11-	=11-	=11-	=11-	=11-	=11-	=11-
2.G\	-na-	2.c\	-na-	2.d\	-na-	2.g/	-na-
4G\	-ti-	8B-y\	.	4d\	-ti-	4g/	-ti-
.	.	8A\	.	.	.	.	.
!	!	!LO:N:acc=#	!	!	!	!	!
1C	-co	4.Bn\	.	1e	-co	1g	-co
.	.	8B\	-ti-	.	.	.	.
!	!	!LO:TX:t=P:problem:ołówkiem dopisana cauda	!	!	!	!	!
.	.	2c\	-co	.	.	.	.
=12-	=12-	=12-	=12-	=12-	=12-	=12-	=12-
1.F	Mi-	1.A	Mi-	1r	.	00r	.
.	.	.	.	1.c	Mi-	.	.
4E-X\	-ſe-	4G/	-ſe-	.	.	.	.
4D/	-ra	4F/	-ra	.	.	.	.
=13-	=13-	=13-	=13-	=13-	=13-	=13-	=13-
!	!LO:MO:mod=sel-	!	!LO:MO:mod=sel-	!	!	!	!
1E-X	ſe-	0G	ſe-	.	.	.	.
.	.	.	.	4B-y/	-ſe-	.	.
.	.	.	.	4A/	-ra	.	.
!	!LO:MO:mod=-va	!	!	!	!LO:MO:mod=sel-	!	!
0D	-lua	.	.	1B-	ſe-	.	.
=14-	=14-	=14-	=14-	=14-	=14-	=14-	=14-
!	!	!	!LO:MO:mod=-va	!	!LO:MO:mod=-va	!	!
.	.	1F#X	-lua	1A	-lua	4dd\	che
.	.	.	.	.	.	4dd\	co i
.	.	.	.	.	.	4dd\	gri-
.	.	.	.	.	.	4dd\	-di aſ-
1.B-	Mi-	2r	.	1r	.	4.dd\	-ſor-
.	.	.	.	.	.	8dd\	-di-
.	.	1d\	Mi-	.	.	2dd\	-la
=15-	=15-	=15-	=15-	=15-	=15-	=15-	=15-
.	.	.	.	1.f	Mi-	0r	.
4A\	-ſe-	4c\	-ſe-	.	.	.	.
4G\	-ra	4B-y\	-ra	.	.	.	.
!	!	!LO:SIC:v:t=custos B	!	!	!	!	!
1A	ſel-	0c	ſel-	.	.	.	.
.	.	.	.	4e\	-ſe-	.	.
.	.	.	.	4d\	-ra	.	.
!	!	!LO:LB:g=original	!	!	!	!	!
=16-	=16-	=16-	=16-	=16-	=16-	=16-	=16-
*	*	*xywh-#348:1248,2318,3451,731	*	*	*	*	*
!LO:SIC:v:t=custos D	!LO:MO:mod=-va	!	!	!	!LO:MO:mod=-sel-	!	!
0G	-ua	.	.	1e	ſe-	1r	.
!	!	!LO:N:acc=#	!LO:MO:mod=-va	!	!LO:MO:mod=-va	!	!
.	.	1Bn	-ua	1d	-lua	4dd\	che
.	.	.	.	.	.	4dd\	co i
.	.	.	.	.	.	4dd\	gri-
.	.	.	.	.	.	4dd\	-di aſ-
!LO:LB:g=original	!	!	!	!	!	!	!
=17-	=17-	=17-	=17-	=17-	=17-	=17-	=17-
*xywh-#196:1155,2349,3324,660	*	*	*	*	*	*	*
4D/	che	4d\	che	2r	.	4.dd\	-ſor-
4D/	co i	4d\	co i	.	.	.	.
.	.	.	.	.	.	8dd\	-di-
!	!	!	!	!	!	!LO:SIC:v:t=custos dd	!
4G\	gri-	4d\	gri-	4B-/	che	2dd\	-la
!	!	!	!	!LO:SIC:v:t=custos f	!	!	!
4G\	-di aſ-	4d\	-di aſ-	4B-/	co i	.	.
!	!	!	!	!LO:LB:g=original	!	!LO:LB:g=original	!
*	*	*	*	*xywh-#500:1141,2228,3352,756	*	*xywh-#652:1141,2252,3412,741	*
4.B-\	-ſor-	4.d\	-ſor-	4f\	gri-	4dd\	che
.	.	.	.	4f\	-di aſ-	4dd\	co i
8B-\	-di-	8d\	-di-	.	.	.	.
2B-\	-la	2d\	-la	4.f\	-ſor-	4dd\	gri-
.	.	.	.	.	.	4dd\	-di aſ-
.	.	.	.	8f\	-di-	.	.
=18-	=18-	=18-	=18-	=18-	=18-	=18-	=18-
4BB-/	che	4B-y\	che	1f	-la	4.dd\	-ſor-
4BB-/	co i	4B-\	co i	.	.	.	.
.	.	.	.	.	.	8dd\	-di-
4B-\	gri-	4d\	gri-	.	.	1dd	-la
4B-\	-di aſ-	4d\	-di aſ-	.	.	.	.
4.B-\	-ſor-	4.d\	-ſor-	2r	.	.	.
8B-\	-di-	8d\	-di-	.	.	.	.
2B-\	-la	2d\	-la	2f\	Fug-	2b-\	Fug-
=19-	=19-	=19-	=19-	=19-	=19-	=19-	=19-
1r	.	1r	.	4.f\	-gi-	4.a\	-gi-
.	.	.	.	8e\	-to è	8cc\	-to è
.	.	.	.	4d\	dal	4b-\	dal
.	.	.	.	4f\	ru-	4a\	ru-
2r	.	2r	.	2e\	-mo-	2g/	-mo-
4r	.	4r	.	2e\	-re	2g/	-re
4C/	A-	4c\	A-	.	.	.	.
=20-	=20-	=20-	=20-	=20-	=20-	=20-	=20-
4F\	-pol-	4A/	-pol-	2r	.	2r	.
4A\	-lo e	4c\	-lo e	.	.	.	.
4.G\	De-	4.B-\	De-	4r	.	4r	.
.	.	.	.	4d\	Fug-	4g/	Fug-
8G\	-li-	8B-\	-li-	.	.	.	.
*	*	*xywh-#348:1310,2854,3348,700	*	*	*	*	*
2F\	-a	2c\	-a	4.f\	-gi-	4.a\	-gi-
.	.	.	.	8e\	-to è	8cc\	-to è
!LO:SIC:v:t=custos C	!	!	!	!	!	!	!
2r	.	2r	.	4d\	dal	4b-\	dal
.	.	.	.	4f\	ru-	4a\	ru-
!LO:LB:g=original	!	!	!	!	!	!	!
=21-	=21-	=21-	=21-	=21-	=21-	=21-	=21-
*xywh-#196:1093,2906,3386,609	*	*	*	*	*	*	*
2r	.	2r	.	2e\	-mo-	2g/	-mo-
!	!	!	!	!LO:SIC:v:t=custos f	!	!LO:SIC:v:t=custos a	!
4r	.	4r	.	2e\	-re A-	2g/	-re A-
4C/	A-	4c\	A-	.	.	.	.
!	!	!	!	!LO:LB:g=original	!	!LO:LB:g=original	!
*	*	*	*	*xywh-#500:1039,2851,3423,643	*	*xywh-#652:941,2829,3694,647	*
4F\	-pol-	4c\	-pol-	4f\	-pol-	4a\	-pol-
!	!	!	!	!	!	!LO:N:acc=#	!
4D/	-lo e	4Fny/	-lo e	4f\	-lo e	4bn\	-lo e
4.C/	De-	4.G/	De-	4.e-X\	De-	4.cc\	De-
8C/	-li-	8A/	-li-	8e-\	-li-	8cc\	-li-
=22-	=22-	=22-	=22-	=22-	=22-	=22-	=22-
1BB-	-a	1B-	-a	1d	-a	1f	-a
4B-\	Get-	2r	.	1d	Get-	4dd\	Get-
8B-\	-ta	.	.	.	.	8dd\	-ta
8A\	la	.	.	.	.	8cc\	la
4G\	li-	4B-\	Get-	.	.	4b-y\	li-
4G\	-ra	8B-\	-ta	.	.	4b-\	-ra
.	.	8A/	la	.	.	.	.
=23-	=23-	=23-	=23-	=23-	=23-	=23-	=23-
4B-\	Get-	2G/	li-	2d\	-ta	4dd\	Get-
8B-\	-ta	.	.	.	.	8dd\	-ta
8A\	la	.	.	.	.	8cc\	la
4.G\	li-	2G/	-ra	2d\	la	4.b-\	li-
8C/	.	.	.	.	.	8cc\	.
0G	-ra	1r	.	8d\	li-	4.dd\	.
.	.	.	.	8c\	.	.	.
.	.	.	.	8d\	.	.	.
.	.	.	.	8e-X\	.	8cc\	.
.	.	.	.	8d\	.	8b-\	.
.	.	.	.	8c\	.	8a\	.
.	.	.	.	8d\	.	8b-\	.
.	.	.	.	8e-X\	.	8cc\	.
=24-	=24-	=24-	=24-	=24-	=24-	=24-	=24-
.	.	2r	.	8d\	.	8b-\	.
.	.	.	.	8c\	.	8a\	.
.	.	.	.	8d\	.	8b-\	.
.	.	.	.	8c\	.	8a\	.
!	!	!	!	!	!	!LO:SIC:v:t=custos cc	!
!	!	!	!	!	!	!LO:N:acc=#	!
.	.	4r	.	2d\	.	2bn\	.
.	.	2G/	ho-	.	.	.	.
!	!	!	!	!	!	!LO:LB:g=original	!
*	*	*	*	*	*	*xywh-#652:1047,3300,3577,753	*
2C/	ho-	.	.	2c/	-ra	2cc\	-ra
.	.	2c\	-mai	.	.	.	.
2F\	-mai	.	.	4r	.	4r	.
!	!	!	!	!LO:SIC:v:t=custos f	!	!	!
.	.	2A/	ch`in-	4c/	ho-	4f/	ho-
!	!	!	!	!LO:LB:g=original	!	!	!
=25-	=25-	=25-	=25-	=25-	=25-	=25-	=25-
*	*	*	*	*xywh-#500:1111,3373,3382,654	*	*	*
2D/	ch`in-	.	.	2f\	-mai	2a\	-mai
.	.	2d\	-dar-	.	.	.	.
!LO:SIC:v:t=custos C	!	!	!	!	!	!LO:N:acc=#	!
2G\	-dar	.	.	2d\	ch`in-	2bn\	ch`in-
.	.	2G/	-no	.	.	.	.
!LO:LB:g=original	!	!	!	!	!	!	!
*xywh-#196:1010,3423,3448,660	*	*	*	*	*	*	*
2C/	no	.	.	2eny\	-dar-	2cc\	-dar-
.	.	4.c\	ac-	.	.	.	.
4.F\	ac-	.	.	4c/	-no ac-	2a\	-no
!	!	!LO:SIC:v:t=custos A	!	!	!	!	!
.	.	8B-\	-cor-	.	.	.	.
!	!	!LO:LB:g=original	!	!	!	!	!
*	*	*xywh-#348:1238,3400,3390,690	*	*	*	*	*
.	.	4.A/	.	4.f\	-cor-	.	.
8Eny\	-cor-	.	.	.	.	.	.
=26-	=26-	=26-	=26-	=26-	=26-	=26-	=26-
4.D/	.	.	.	.	.	4.f/	ac-
.	.	8G/	.	8g\	.	.	.
.	.	4.F/	.	4.a\	.	.	.
8E\	.	.	.	.	.	8g/	-cor-
4.F\	.	.	.	.	.	4.a\	.
.	.	8G/	.	8g\	.	.	.
.	.	4.A/	.	4.f\	.	.	.
8G\	.	.	.	.	.	8b-y\	.
4.A\	.	.	.	.	.	4.cc\	.
.	.	8B-\	.	8e\	.	.	.
.	.	4.c\	.	2f\	.	.	.
8B-\	.	.	.	.	.	16b-\	.
.	.	.	.	.	.	16a\	.
4.c\	.	.	.	.	.	4.g/	.
.	.	8c\	-di-	.	.	.	.
.	.	4C/	-la	4e\	-di-	.	.
8c\	-di-	.	.	.	.	8g/	di-
=27-	=27-	=27-	=27-	=27-	=27-	=27-	=27-
1F	-la	1r	.	1f	-la	1a	-la
2r	.	2r	.	2r	.	2r	.
1BB-/	Hog-	1B-\	Hog-	1d\	Hog-	1f/	Hog-
=28-	=28-	=28-	=28-	=28-	=28-	=28-	=28-
2BB-/	-gi	2B-\	-gi	2d\	-gi	2f/	-gi
1E-X	gia	1G	gia	1B-	gia	1e-X	gia
=29-	=29-	=29-	=29-	=29-	=29-	=29-	=29-
2E-yX\	non	2G/	non	2B-/	non	2e-yX/	non
!	!	!	!	!	!	!LO:SIC:v:t=custos d	!
2C/	ſi	2G/	ſi	2c/	ſi	2eny/	ſi
!	!	!	!	!	!	!LO:LB:g=original	!
*	*	*	*	*	*	*xywh-#652:1070,3853,3506,753	*
2D/	can-	2F#X/	can-	2A/	can-	2d/	can-
!	!	!	!	!LO:SIC:v:t=custos f	!	!	!
4.D/	-ta	4.F#/	-ta	2A/	-ta	2d/	-ta
!LO:SIC:v:t=custos E	!	!	!	!	!	!	!
8D/	an-	8F#/	an-	.	.	.	.
!LO:LB:g=original	!	!	!	!LO:LB:g=original	!	!	!
=30-	=30-	=30-	=30-	=30-	=30-	=30-	=30-
*xywh-#196:1124,3939,3334,712	*	*	*	*xywh-#500:978,3884,3444,664	*	*	*
4Eny\	-zi	4G/	-zi ſi	2r	.	2r	.
4.F\	pre-	4.A/	pre-	.	.	.	.
.	.	.	.	4.f\	an-	4.a\	an-
8F\	-li-	8A/	-li-	.	.	.	.
!	!	!LO:SIC:v:t=custos A	!	!	!	!	!
4F\	-a	4A/	-a	.	.	.	.
.	.	.	.	8f\	-zi	8a\	-zi
!	!	!LO:LB:g=original	!	!	!	!	!
*	*	*xywh-#348:1104,3905,3534,721	*	*	*	*	*
2r	.	2r	.	4g\	ſi	4b-\	ſi
.	.	.	.	4.a\	pre-	4.cc\	pre-
4.F\	an-	4.A/	an-	.	.	.	.
.	.	.	.	8a\	-li-	8cc\	-li-
.	.	.	.	4a\	-a	4cc\	-a
8F\	-zi	8A/	-zi	.	.	.	.
=31-	=31-	=31-	=31-	=31-	=31-	=31-	=31-
4G\	ſi	4B-\	ſi	2r	.	2r	.
4.A\	pre-	4.c\	pre-	.	.	.	.
.	.	.	.	4r	.	4r	.
8A\	-li-	8c\	-li-	.	.	.	.
4A\	-a	4c\	-a	4e\	Ceſ-	4cc\	Ceſ-
4r	.	4r	.	1f	-ſa-	2cc\	-ſa-
4F\	Ceſ-	4A/	Ceſ-	.	.	.	.
2F\	-ſa-	2c\	-ſa-	.	.	4a\	-te
.	.	.	.	.	.	4a\	Ceſ-
=32-	=32-	=32-	=32-	=32-	=32-	=32-	=32-
4C/	-te	4c\	-te	4e\	-te	4.cc\	-ſat`
4F\	Ceſ-	4A/	Ceſ-	4c/	Ceſ-	.	.
.	.	.	.	.	.	8b-\	ho-
4.F\	-ſa-	4.c\	-ſa-	4.f\	-ſat`	2.a\	-mai
8E\	-t`ho-	8c\	-t`ho-	8g\	ho-	.	.
4D/	-mai	4d\	-mai	4f\	-mai	.	.
!	!	!LO:N:acc=#	!	!	!	!	!
4G\	per	4Bn\	per	4d\	per	4g/	per
2C/	Dio	2c\	Dio	2e\	Dio	2g/	Dio
=33-	=33-	=33-	=33-	=33-	=33-	=33-	=33-
4r	.	4r	.	4r	.	4r	.
4F\	ceſ-	4c\	ceſ-	4f\	ceſ-	4a\	ceſ-
1BB-	-ſa-	1B-y	-ſa-	1d	-ſa-	1f	-ſa-
!LO:SIC:v:t=custos BB	!	!	!	!	!	!LO:SIC:v:t=custos d	!
2BB-/	-te al	2Fny/	-te al	2B-/	-te al	2d/	-te al
!LO:LB:g=original	!	!	!	!	!	!LO:LB:g=original	!
=34-	=34-	=34-	=34-	=34-	=34-	=34-	=34-
*xywh-#196:1031,4527,3448,660	*	*	*	*	*	*xywh-#652:1035,4429,3494,753	*
!	!	!	!	!	!	!	!LO:MO:mod=quan-
0BB-	quan-	0F	quan-	0B-	quan-	0d	quã(n)-
=35-	=35-	=35-	=35-	=35-	=35-	=35-	=35-
!	!	!LO:SIC:v:t=custos A	!	!LO:SIC:v:t=custos f	!	!	!
1FF	-to	1F	-to	1A	-to	1c	-to
!	!	!LO:LB:g=original	!	!LO:LB:g=original	!	!	!
*	*	*xywh-#348:1186,4410,3451,824	*	*xywh-#500:1009,4323,3433,797	*	*	*
1r	.	1r	.	2r	.	1f	Co-
.	.	.	.	2f\	Co-	.	.
=36-	=36-	=36-	=36-	=36-	=36-	=36-	=36-
0r	.	0r	.	2f\	-min-	2.a\	-min-
.	.	.	.	2d\	-cia E-	.	.
.	.	.	.	.	.	4b-\	-cia E-
.	.	.	.	2c/	-len-	2cc\	-len-
.	.	.	.	2c/	-co	2cc\	-co
=37-	=37-	=37-	=37-	=37-	=37-	=37-	=37-
!	!LO:MO:mod=e	!	!LO:MO:mod=e	!	!	!	!
2F\	&	2A/	&	1r	.	1r	.
2A\	tu	2c\	tu	.	.	.	.
!	!	!	!	!	!LO:MO:mod=e	!	!LO:MO:mod=e
2r	.	2r	.	2f\	&	2a\	&
4r	.	4r	.	2a\	tu	2cc\	tu
!	!LO:MO:mod=e	!	!LO:MO:mod=e	!	!	!	!
4F\	&	4A/	&	.	.	.	.
=38-	=38-	=38-	=38-	=38-	=38-	=38-	=38-
4.A\	tu	4.c\	tu	1r	.	1r	.
8A\	riſ-	8c\	riſ-	.	.	.	.
4B-\	-pon-	4d\	-pon-	.	.	.	.
4A\	-di O-	4c\	-di O-	.	.	.	.
4.G\	-fe-	4.B-\	-fe-	2r	.	2r	.
8G\	-li-	8B-\	-li-	.	.	.	.
2F\	-a	2c\	-a	4r	.	4r	.
!	!	!	!	!	!LO:MO:mod=e	!	!LO:MO:mod=e
.	.	.	.	4f\	&	4a\	&
=39-	=39-	=39-	=39-	=39-	=39-	=39-	=39-
4r	.	4r	.	2a\	tu	2cc\	tu
!	!LO:MO:mod=e	!	!LO:MO:mod=e	!	!	!	!
4F\	&	4A/	&	.	.	.	.
2.F\	tu	2c\	tu	4r	.	4r	.
!	!	!	!	!	!LO:MO:mod=e	!	!LO:MO:mod=e
.	.	.	.	4A/	&	4f/	&
.	.	2A/	riſ-	4.c/	tu	4.a\	tu
4F\	riſ-	.	.	.	.	.	.
.	.	.	.	8c/	riſ-	8a\	riſ-
4BB-/	-pon-	4F/	-pon-	4d\	-pon-	4b-\	-pon-
!	!	!	!	!	!LO:MO:mod=-di	!	!LO:MO:mod=-di O-
4FF/	-di O-	4c\	-di O-	2f\	-di O-	4a\	-di
=40-	=40-	=40-	=40-	=40-	=40-	=40-	=40-
!	!	!	!	!	!	!	!LO:MO:mod=-fe-
2.C/	-fe-	2.c\	-fe-	.	.	2.g/	O-
!	!	!	!	!	!LO:MO:mod=O-	!	!
.	.	.	.	8e\	-fe-	.	.
.	.	.	.	8d\	.	.	.
!	!	!	!	!	!LO:MO:null:mod=-fe-	!	!
.	.	.	.	4.e\	.	.	.
!	!	!	!	!	!	!	!LO:MO:mod=-li-
4C/	-li-	4c\	-li-	.	.	4g/	-fe-
!	!	!	!	!	!LO:MO:null:mod=-li-	!	!
.	.	.	.	8e\	.	.	.
1FFl	-a.	1cl	-a.	1fl	-lia.	1al	-lia.
==	==	==	==	==	==	==	==
*-	*-	*-	*-	*-	*-	*-	*-
!!!system-decoration: [(*)]
!!!RDF**kern: l = terminal long
!!!ENC: Filip Voros
!!!END: 2022-06-27
!!!ENC: Jan Barakat
!!!END: 2022-07-15
!!!YEC: Copyright 2022 Narodowy Instytut Fryderyka Chopina (https://polishscores.org)
!!!YEM: License CC-BY-4.0 (https://creativecommons.org/licenses/by/4.0)
!!!IIIF: https://repozytorium.nifc.pl/islandora/object/pl-gd%3A57883/datastream/IIIF/view
!!!ENC-iiif: Zuzanna Daniec
!!!END-iiif: 2022-09-30
!!!ENC-modern: Andrzej Borzym
!!!END-modern: 2022-11-05
